X: 4822
T: Boys Of The Town, The
R: jig
M: 6/8
K: Gmajor
e|:fed B2A|BGE G2A|BdB AGA|GBd e2e|
fed B2A|BGE G2A|BdB AGA|1 BGG G2e:|2 BGG G3||
|:def gfg|eaa eaa|bag e2d|efg efg|
def gfg|afd gfg|edB AGA|1 BGG G3:|2 BGG G2||

